X:1
T:Title
%%score { ( 1 3 4 ) | ( 2 5 6 ) }
L:1/8
M:4/4
K:C
V:1 treble nm="Grand Piano"
V:3 treble 
V:4 treble 
V:2 bass 
V:5 bass 
V:6 bass 
V:1
 z4 z2[Q:1/4=108] G>G | z4 z2 G2 | [CEB]2 [CEA]2 z2[K:bass] z E | z .G3[K:bass][K:treble] z2 F2 | %4
[M:2/4] [G,B,G]2 [G,B,F]2 | z2 D2 |[M:4/4] [G,B,F]2 [B,FB]2 [B,FB]2 A>B | %7
 [CEA]2 [CEG]2 [EGc]2 [CGc]>[CGc] | [DGB]2 [DGB]2 [DGd]3 c | [DGB]2 [C^FA]2 [B,DG]4 | %10
 [EGc]2 [EGc]4 B>A | z2 [FGB]6[K:bass] | [FGB]3 d [FA]2 [FGB]2 | [CEG]6[K:bass] z2 | %14
 [CFA]3 A [DGB]2 [B,DG]2 | [CGc]2 c2- [CGc]2 [EGe]2 | [D^Fd]2 [DFA]2 [DGd]2 [Fce]2 | %17
 d2- [FAd-]2 [FGd]2 z2 | [EGc]2 [EGc]4 B>A | [FGc]2 [GB]4 B>c | [FGd]2 [FGB]2 [EAc]2 [FAd]2 | %21
 [E^Ge]6 z2 | [GAe]2 [^CGA]2 [GAf]2 [Ae]2 | z2 [FA]4 z2 | [EGe]4 [FGd]4 | %25
[M:3/4] c2- [Fc-]2 [Ec]2 |] %26
V:2
 z8 | [C,,C,]2 [G,,,G,,]2 [C,,C,]2 [G,,,G,,]2 | [C,,C,]2 [G,,,G,,]2 [C,,C,]2 z C | z .[CE]3 z4 | %4
[M:2/4] [D,,D,]2 [G,,,G,,]2 | [D,,D,]2 [G,,,G,,]2 | %6
[M:4/4] [D,,D,]2 [G,,,G,,]2 [D,,D,]2 [G,,,G,,]2 | [C,,C,]2 [G,,,G,,]2 [C,,C,]2 [E,,E,]2 | %8
 [D,,D,]2 [D,,D,]2 [B,,,B,,]2 z [EA] | [D,,D,]2 [D,,D,]2 [G,,G,]4 | %10
 [C,,C,]2 [G,,,G,,]2 [C,,C,]2 [G,,,G,,]2 | [D,,D,]2 [G,,,G,,]2 D,,2 G,,,2 | %12
 [D,,D,]2 z [FG] [B,,,B,,]2 [G,,,G,,]2 | [C,,C,]2 D,,2 E,,2 C,,2 | %14
 [F,,F,]2 z [CF] [G,,G,]2 [F,,F,]2 | [E,,E,]2 [C,,C,]2 [E,,E,]2 [C,,C,]2 | %16
 [D,,D,]2 [C,C]2 [B,,B,]2 [A,,A,]2 | [G,,G,]2 [A,,A,]2 [B,,B,]2 [G,,G,]2 | %18
 [C,,C,]2 [G,,,G,,]2 [C,,C,]2 [G,,,G,,]2 | [D,,D,]2 [G,,,G,,]2 [D,,D,]2 [G,,,G,,]2 | %20
 [B,,,B,,]2 [G,,,G,,]2 [A,,,A,,]2 [F,,F,]2 | [E,,E,]2 ^G,,2 B,,2 [E,,E,]2 | %22
 A,,2 A,2 A,,2 [A,^CG]2 | D,,2 F,2 F,2[K:treble] B>c | G,,2 G,2 B,2 G,2 |[M:3/4] G,2 A,2 G,2 |] %26
V:3
 x8 | [CEc]2 [CEB]2 [CEA]2 [CE]->[CEA] | z4 [CEG]4[K:bass] | %3
 .[CEG]2[K:bass] z[K:treble] G [_B,EG]2 B,->[B,E] |[M:2/4] x4 | [G,B,D]2 [G,B,]->[G,B,E] | %6
[M:4/4] z4 z2 [B,F]2 | x8 | x8 | x8 | z4 z2 [EG]2 | [FGc]2 z2[K:bass] D,2 G,,2 | x8 | %13
 z2[K:bass] D,2 E,2 C,2 | x8 | z2 [CE]2 z4 | x8 | [FB]2 z2 z4 | z4 z2 [EG]2 | z4 z2 [FG]2 | x8 | %21
 z2 ^G,2 B,2 [E^Ge]2 | x8 | [FAd]2 [A,D]2 [A,D]2 z2 | x8 |[M:3/4] E2 z2 z2 |] %26
V:4
 x8 | x8 | z4 z2[K:bass] G,,2 | z2[K:bass] G,,2[K:treble] z4 |[M:2/4] x4 | x4 |[M:4/4] x8 | x8 | %8
 x8 | x8 | x8 | x4[K:bass] x4 | x8 | x2[K:bass] x6 | x8 | x8 | x8 | x8 | x8 | x8 | x8 | x8 | x8 | %23
 x8 | x8 |[M:3/4] x6 |] %26
V:5
 x8 | x8 | z4 z2 G,,,2 | z2 z [CE] [^C,,C,]2 [G,,,G,,]2 |[M:2/4] x4 | x4 |[M:4/4] x8 | x8 | %8
 z4 z2 [C,,C,]2 | x8 | x8 | x8 | z2 [G,,,G,,]2 z4 | x8 | z2 [D,,D,]2 z4 | x8 | x8 | x8 | x8 | x8 | %20
 x8 | x8 | x8 | x6[K:treble] x2 | x8 |[M:3/4] C,6 |] %26
V:6
 x8 | x8 | x8 | [C,,C,]2 G,,,2 z4 |[M:2/4] x4 | x4 |[M:4/4] x8 | x8 | x8 | x8 | x8 | x8 | x8 | x8 | %14
 x8 | x8 | x8 | x8 | x8 | x8 | x8 | x8 | x8 | x6[K:treble] x2 | x8 |[M:3/4] x6 |] %26

